X:1
T:Dont vient cela
T:Dont vient cela
T:(Basse dansse 1)
T:Tielman Susato
C:Tielman Susato
%%score 1 2 3 4
L:1/8
Q:1/2=210
M:3/2
K:C
V:1 treble 
V:2 treble 
V:3 treble 
V:4 treble 
V:1
 D4 D4 D4 | D6 E2 F2 E2 | D2 C2 D8 | C8 C4 | C4 D4 E4 | F4 G6 F2 | F8 E4 | F8 z4 | F4 F4 F4 | %9
 F8 G4 | E8 E4 | E4 F4 G4 | A6 G2 F4 | E2 D2 E6 D2 | D8 ^C4 | D8 z4 :: F4 F4 F4 | F8 G4 | A8 ^G4 | %19
 A8 z4 | F4 F4 F4 | E2 D2 E2 F2 G4 | F8 E4 | F8 z4 | F4 F4 F4 | F8 G4 | A8 ^G4 | A8 z4 | %28
 F6 E2 D2 C2 | D4 E6 D2 | D8 ^C4 | D8 z4 :|"^Reprise" F4 F4 F4 | E2 F2 G2 F2 E2 D2 | D8 ^C4 | %35
 D8 z4 | F4 F4 F4 | E8 E4 | D8 D4 | ^C8 z4 | F4 F4 F4 | E2 F2 G2 F2 E2 D2 | D8 ^C4 | D8 z4 | %44
 C4 D4 E4 | F4 E6 D2 | D8 ^C4 | D8 z4 | E6 D2 E2 F2 | E8 z4 | E6 F2 G2 E2 | F8 z4 | F6 E2 D2 C2 | %53
 D6 E2 F4 | E4 D8 | ^C8 z4 | E6 D2 E2 F2 | E8 z4 | E6 F2 G2 E2 | F8 z4 | F6 E2 D2 C2 | D4 E6 D2 | %62
 D8 ^C4 | D12 |] %64
V:2
 A,4 A,4 A,4 | A,8 A,4 | _B,8 B,4 | A,8 A,4 | A,6 B,2 C4 | C4 _B,8 | A,4 C8 | A,8 z4 | D4 D4 D4 | %9
 D8 D4 | C8 C4 | C8 _B,4 | A,6 _B,2 C4 | C8 A,4 | G,4 A,8 | A,8 z4 :: D4 D4 D4 | D8 E4 | E4 E8 | %19
 ^C8 z4 | D4 D4 D4 | C8 D4 | B,4 C8 | A,8 z4 | D4 D4 D4 | D8 E4 | E4 E8 | ^C8 z4 | D4 D4 D4 | %29
 A,4 C4 A,4 | G,4 A,8 | A,8 z4 :| D4 D4 C4 | C4 D4 C4 | A,4 A,8 | A,8 z4 | D4 D4 A,4 | C8 C4 | %38
 A,8 G,4 | A,8 z4 | C4 C4 C4 | C4 D4 C4 | A,4 A,8 | A,8 z4 | A,4 A,4 C4 | C8 C4 | A,4 A,8 | %47
 A,8 z4 | C6 A,2 C4 | C8 z4 | C8 B,4 | D8 z4 | D8 A,4 | A,6 B,2 C4 | C4 A,4 G,4 | A,8 z4 | %56
 C6 A,2 C4 | C8 z4 | C8 B,4 | D8 z4 | D8 D4 | A,4 C4 A,4 | G,4 A,8 | A,12 |] %64
V:3
 D,8 D,4 | F,8 F,4 | G,8 G,4 | E,8 E,4 | E,4 F,4 G,4 | A,4 _B,6 A,2 | F,4 G,8 | F,8 z4 | %8
 A,4 A,4 A,4 | A,8 B,4 | G,8 G,4 | A,8 _B,4 | C6 _B,2 A,4 | G,8 F,4 | D,4 E,8 | D,8 z4 :: %16
 A,4 A,4 A,4 | A,8 B,4 | C4 B,8 | A,8 z4 | A,8 A,4 | A,4 G,2 A,2 B,2 A,2 | G,2 F,2 G,8 | F,8 z4 | %24
 A,4 A,4 A,4 | A,8 B,4 | C4 B,8 | A,8 z4 | A,6 G,2 F,2 E,2 | F,4 G,4 F,4 | D,4 E,8 | D,8 z4 :| %32
 A,4 A,4 A,4 | G,2 A,2 _B,2 A,2 G,2 F,2 | E,2 D,2 E,8 | D,8 z4 | A,4 A,4 F,4 | G,6 F,2 E,4 | %38
 F,4 D,8 | E,8 z4 | A,4 A,4 A,4 | G,2 A,2 _B,2 A,2 G,2 F,2 | E,2 D,2 E,8 | D,8 z4 | E,4 F,4 G,4 | %45
 A,8 G,4 | F,4 E,8 | D,8 z4 | G,6 F,2 G,2 A,2 | G,8 z4 | G,4 G,4 G,4 | A,8 z4 | A,6 G,2 F,2 E,2 | %53
 F,6 G,2 A,4 | G,4 F,4 D,4 | E,8 z4 | G,6 F,2 G,2 A,2 | G,8 z4 | G,8 G,4 | A,8 z4 | %60
 A,6 G,2 F,2 E,2 | F,4 G,4 F,4 | D,4 E,8 | D,12 |] %64
V:4
 D,8 D,4 | D,8 D,4 | G,,8 G,,4 | A,,8 A,,4 | A,,4 D,4 C,2 _B,,2 | A,,4 G,,2 A,,2 _B,,2 C,2 | %6
 D,4 C,8 | F,,8 z4 | D,4 D,4 D,4 | D,8 G,,4 | C,8 C,4 | A,,8 G,,4 | F,,6 G,,2 A,,2 _B,,2 | %13
 C,8 D,4 | _B,,4 A,,8 | D,8 z4 :: D,4 D,4 D,4 | D,6 F,2 E,4 | A,,4 E,8 | A,,8 z4 | D,4 D,4 D,4 | %21
 A,,4 C,4 G,,4 | D,4 C,8 | F,,8 z4 | D,4 D,4 D,4 | D,6 F,2 E,4 | A,,4 E,8 | A,,8 z4 | D,4 D,4 D,4 | %29
 D,4 C,4 D,4 | _B,,4 A,,8 | D,8 z4 :| D,4 D,4 F,4 | C,4 G,,4 C,4 | D,4 A,,8 | D,8 z4 | %36
 D,4 D,4 D,4 | C,8 C,4 | D,4 _B,,8 | A,,8 z4 | F,,6 G,,2 A,,2 B,,2 | C,4 G,,4 C,4 | D,4 A,,8 | %43
 D,8 z4 | A,,4 D,4 C,4 | F,,2 G,,2 A,,2 B,,2 C,4 | D,4 A,,8 | D,8 z4 | C,6 D,2 C,2 F,,2 | C,8 z4 | %50
 C,6 D,2 E,4 | D,8 z4 | D,8 D,4 | D,6 C,2 A,,2 B,,2 | C,4 D,4 _B,,4 | A,,8 z4 | C,6 D,2 C,2 F,,2 | %57
 C,8 z4 | C,6 D,2 E,4 | D,8 z4 | D,8 D,4 | D,4 C,4 D,4 | _B,,4 A,,8 | D,12 |] %64

